application/web/upload/images/basket-white.svg

<svg width="25" height="23" viewBox="0 0 25 23" fill="none" xmlns="http://www.w3.org/2000/svg">
<path fill-rule="evenodd" clip-rule="evenodd" d="M7.31055 0.688214C7.20409 0.286561 6.84171 0 6.42089 0H0.92102L0.81361 0.00624815C0.355551 0.0598955 0 0.452437 0 0.928715L0.00619637 1.03702C0.0593992 1.49891 0.448688 1.85743 0.92102 1.85743H5.62743L7.3521 13.4472L7.37327 13.5499C7.47973 13.9516 7.84211 14.2381 8.26293 14.2381H23.1578L23.2611 14.2323C23.6689 14.1862 24.0029 13.8703 24.0677 13.4531L24.9887 7.52441L24.9991 7.41953C25.0217 6.89941 24.6089 6.45197 24.0788 6.45197H14.2974L14.1899 6.45822C13.7319 6.51187 13.3763 6.90441 13.3763 7.38068L13.3825 7.48899C13.4357 7.95088 13.825 8.3094 14.2974 8.3094L23.0016 8.30921L22.3688 12.3807H9.05547L7.33172 0.790925L7.31055 0.688214ZM6.52745 20.1904C6.52745 18.6394 7.77563 17.3808 9.31372 17.3808C10.8519 17.3808 12.1001 18.6394 12.1001 20.1904C12.1001 21.7414 10.8519 23 9.31372 23C7.77561 23 6.52745 21.7414 6.52745 20.1904ZM10.258 20.1904C10.258 19.6652 9.83457 19.2382 9.31372 19.2382C8.79296 19.2382 8.36949 19.6652 8.36949 20.1904C8.36949 20.7156 8.79296 21.1426 9.31372 21.1426C9.83457 21.1426 10.258 20.7156 10.258 20.1904ZM17.585 20.1904C17.585 18.6394 18.8332 17.3808 20.3714 17.3808C21.9096 17.3808 23.1578 18.6394 23.1578 20.1904C23.1578 21.7414 21.9096 23 20.3714 23C18.8332 23 17.585 21.7414 17.585 20.1904ZM21.3157 20.1904C21.3157 19.6652 20.8922 19.2382 20.3714 19.2382C19.8506 19.2382 19.4271 19.6652 19.4271 20.1904C19.4271 20.7156 19.8505 21.1426 20.3714 21.1426C20.8922 21.1426 21.3157 20.7156 21.3157 20.1904Z" fill="white"/>
</svg>

<svg width="25" height="23" fill="none" xmlns="http://www.w3.org/2000/svg"><path fill-rule="evenodd" clip-rule="evenodd" d="M7.31.688A.922.922 0 006.42 0H.922L.814.006A.926.926 0 000 .93l.006.108c.053.462.443.82.915.82h4.706l1.725 11.59.021.103a.922.922 0 00.89.688h14.895l.103-.006a.925.925 0 00.807-.779l.92-5.929L25 7.42a.925.925 0 00-.92-.968h-9.782l-.107.006a.926.926 0 00-.814.923l.007.108c.053.462.442.82.914.82h8.705l-.633 4.072H9.055L7.332.79 7.31.688zM6.528 20.19c0-1.55 1.249-2.81 2.787-2.81 1.538 0 2.786 1.26 2.786 2.81 0 1.551-1.248 2.81-2.786 2.81s-2.787-1.259-2.787-2.81zm3.731 0a.95.95 0 00-.944-.952.95.95 0 00-.945.952.95.95 0 00.945.953.95.95 0 00.944-.953zm7.327 0c0-1.55 1.248-2.81 2.786-2.81 1.539 0 2.787 1.26 2.787 2.81 0 1.551-1.248 2.81-2.787 2.81-1.538 0-2.786-1.259-2.786-2.81zm3.73 0a.95.95 0 00-.944-.952.95.95 0 00-.944.952.95.95 0 00.944.953.95.95 0 00.945-.953z" fill="#fff"/></svg>
